src/16/actions/edit-clone-unlink.svg

<svg xmlns="http://www.w3.org/2000/svg" width="16" height="16" viewBox="0 0 16 16">
 <defs>
  <style id="current-color-scheme" type="text/css">
   .ColorScheme-Text { color:#565656; } .ColorScheme-Highlight { color:#5294e2; }
  </style>
 </defs>
 <path style="fill:currentColor" class="ColorScheme-Text" d="M 2 2 L 2 10 L 6 10 L 6 14 L 14 14 L 14 6 L 10 6 L 10 2 L 2 2 z M 10 7 C 10.739 7 11.333984 7.6834375 11.333984 8.5234375 L 11.333984 10 L 11.666016 10 C 11.851016 10 12 10.167 12 10.375 L 12 12.625 C 12 12.833 11.851016 13 11.666016 13 L 8.3339844 13 C 8.1492844 13 8 12.833 8 12.625 L 8 10.375 C 8 10.167 8.1492844 10 8.3339844 10 L 10.666016 10 L 10.666016 8.5 C 10.666016 8.0845 10.369 7.75 10 7.75 C 9.6307 7.75 9.3339844 8.0845 9.3339844 8.5 L 9.3339844 8.875 L 8.6660156 8.875 L 8.6660156 8.5 C 8.6772156 7.6706 9.2683 7 10 7 z"/>
</svg>

<svg xmlns="http://www.w3.org/2000/svg" width="16" height="16"><defs><style id="current-color-scheme" type="text/css"></style></defs><path d="M2 2v8h4v4h8V6h-4V2H2zm8 5c.739 0 1.334.683 1.334 1.523V10h.332c.185 0 .334.167.334.375v2.25c0 .208-.149.375-.334.375H8.334C8.149 13 8 12.833 8 12.625v-2.25c0-.208.15-.375.334-.375h2.332V8.5c0-.415-.297-.75-.666-.75-.37 0-.666.335-.666.75v.375h-.668V8.5C8.677 7.67 9.268 7 10 7z" fill="currentColor" color="#565656"/></svg>
